X:44
T:Forest where the Deer resort, The
T:Sud an gleann 'sam be na feidh
R:Strathspey
S:Simon Fraser Collection
N:No.25
O:Scottish
M:C
L:1/8
Q:1/4=140
K:D Minor
c|:A<d d>f c>fA>a|f>c A<F G/G/G A2|1 A<d d>f c>fA>d|
B>G G/G/G F>D D2:|2 a>gf>d c>BA>d|B>G G/G/G FD D2|]
|:D>GG>B c>B A<c|B<GG>B c>A F<A|1 D<G G>B c>B A<d|
B>G G/G/G F>D D2:|2 A<d d/d/d c>A A/A/A|B>G G/G/G F>D D2|]

